X:1
T:Title
%%score { 1 | ( 2 3 ) }
L:1/8
M:6/8
K:Ab
V:1 treble nm="Grand Piano"
V:2 bass 
V:3 bass 
V:1
 z3 z2[Q:1/4=87] [CE] | [Ec]>[DB][CA] [Ec][DB][CA] | A G2- G z G/A/ | B>BB BAB | c3- c2 c/d/ | %5
 e>dc [Ec][EB][EA] | [FB] [FA]2- [FA] z [EG]/F/ | E>dd c2 B |[M:5/8] [CA]-[CA]- [CA]3 | %9
[M:1/8] [CA]/[CA]/ |[M:3/4] BG F E2 d | c4- cc/c/ | c>c c [A=d]2 [Ad] | [Ge]4- [Ge]c/d/ | %14
 e>d c[Ec] [EB][EA] | [FB] [FA]3 z [EG]/F/ |[M:7/8] E>dd c3 B |[M:5/8] [CA]-[CA]- [CA]3 |] %18
V:2
 z3 z2 [A,,A,] | [A,,A,]>[A,,A,][A,,A,] [A,,A,][A,,A,][A,,A,] | z3 z2 .B, | %3
 [E,G,E]>[E,G,E][E,G,E] [E,G,E][E,F,E][E,G,E] | z3 z2 [A,E] | %5
 [A,CE]>[A,B,E][A,E] [A,,A,][B,,G,][C,A,] | [D,A,] [D,D]2- [D,D] z [D,A,]/[D,A,D]/ | %7
 [E,A,C]>[E,B,E][E,B,E] [E,A,E]2 [E,G,D] |[M:5/8] [A,,A,]-[A,,A,]- [A,,A,]3 | %9
[M:1/8] [A,,A,]/[A,,A,]/ |[M:3/4] [E,G,E][E,B,E] [E,A,E] [E,G,]2 [E,B,E] | %11
 [A,E]4- [A,E][A,E]/[A,E]/ | [F,A,F]>[F,A,F] [F,A,F] [B,,B,]2 [B,,B,] | z2 z2 z [A,E] | %14
 [A,CE]>[A,B,E] [A,E][A,,A,] [B,,G,][C,A,] | [D,A,] [D,D]3 z [D,A,]/[D,A,D]/ | %16
[M:7/8] [E,A,C]>[E,B,E][E,B,E] [E,A,E]3 [E,G,D] |[M:5/8] [A,,A,]-[A,,A,]- [A,,A,]3 |] %18
V:3
 x6 | x6 | [E,CE] [E,B,E]2- [E,B,E] z [E,E]/-[E,A,E]/ | x6 | [A,E]3- [A,E]2 z/ B,/ | x6 | x6 | x6 | %8
[M:5/8] x5 |[M:1/8] x |[M:3/4] x6 | x6 | x6 | [E,B,]4- [E,B,] z/ B,/ | x6 | x6 |[M:7/8] x7 | %17
[M:5/8] x5 |] %18

